static/twoday.svg

<svg width="76" height="76" viewBox="0 0 76 76" fill="none" xmlns="http://www.w3.org/2000/svg">
<g clip-path="url(#clip0)">
<path d="M42.7376 48.9945L42.6362 48.7158L42.7376 48.9945L42.8136 49.2732L42.7376 48.9945Z" fill="white"/>
<path d="M33.8203 46.9934C33.8456 46.9934 33.871 46.9934 33.8963 47.0187C33.871 46.9934 33.8456 46.9934 33.8203 46.9934Z" fill="white"/>
<path d="M48.2349 45.4985L48.8175 46.7145L49.4509 48.0319L48.2349 45.4985Z" fill="white"/>
<path d="M76 -0.026123H0V16.0352L17.1 25.4085C16.9987 26.1939 16.9733 27.0045 16.9733 27.8152C16.9733 32.1219 18.2653 36.2765 20.672 39.8232C20.824 40.0512 20.976 40.2792 21.1533 40.5072C21.7613 41.3179 22.3947 42.1032 23.1293 42.8379C23.94 43.6739 24.8267 44.4592 25.764 45.1432C26.7013 45.8272 27.664 46.4605 28.6773 46.9925C29.9187 47.6259 31.1853 48.1579 32.528 48.5632L32.9333 46.7899C30.7547 46.2579 29.1587 45.6499 28.5 45.3965C28.2973 45.3205 28.196 45.2699 28.196 45.2699C28.196 45.2699 28.2213 45.2952 28.2973 45.3205C29.3867 45.7765 39.7733 49.7032 49.1467 39.3925C59.1533 28.3725 51.3253 13.9579 51.3253 13.9579C51.3253 13.9579 63.46 24.8259 53.9093 40.0259C52.6173 42.0779 51.1227 43.6232 49.476 44.7379C49.324 44.8392 49.1973 44.9405 49.0453 45.0165C49.1973 44.9152 49.324 44.8392 49.476 44.7379L50.1347 45.8779C51.452 45.0925 52.5667 44.1045 53.5293 42.9392C53.96 42.5085 53.8333 42.6099 54.2387 42.1285C55.4293 40.6845 56.468 39.0125 57.228 37.3152C58.14 35.2632 58.6973 33.0339 58.8747 30.7285C58.9253 30.1459 58.9507 29.5885 58.9507 29.0059C58.9507 26.8272 58.6213 24.6739 57.988 22.6472L76 9.85388V-0.026123Z" fill="white"/>
<path d="M0 31.1853V31.236L1.31733 31.7933L0 31.1853Z" fill="#0FC6EF"/>
<path d="M57.9883 22.6478C58.6216 24.6998 58.951 26.8278 58.951 29.0065C58.951 29.5892 58.9256 30.1718 58.8749 30.7292L76.0003 19.1265V16.7958V9.85449L57.9883 22.6478Z" fill="#FFD88A"/>
<path d="M20.6467 39.7988C18.24 36.2521 16.948 32.0975 16.948 27.7908C16.948 26.9801 16.9987 26.1695 17.0747 25.3841L0 16.0361V19.8108V31.2108L1.31733 31.7935L20.6467 39.7988Z" fill="#FFD88A"/>
<path d="M25.7387 45.1187L21.66 47.956L4.7627 59.8627C5.54803 59.8627 6.61203 60.3187 7.75203 61.1293L25.1814 49.2987L28.652 46.9427C27.6387 46.436 26.6507 45.828 25.7387 45.1187Z" fill="#FFC133"/>
<path d="M30.805 55.3785L31.9957 50.5652L30.6784 51.4265L21.0264 57.7598L30.805 55.3785Z" fill="#FFC133"/>
<path d="M65.6645 54.8467C64.5245 56.0627 63.6885 57.3801 63.2578 58.4947L65.0311 61.1294L65.2338 61.2307C66.4498 60.8254 67.9951 59.7867 69.3631 58.2921C71.6938 55.7841 72.7578 52.9974 71.7445 52.0347C71.0351 51.3761 69.4898 51.7814 67.8178 52.9467C67.7925 52.9721 67.7418 52.9974 67.7165 53.0227C67.0071 53.5294 66.3231 54.1374 65.6645 54.8467Z" fill="white"/>
<path d="M65.1069 61.2812C65.1323 61.2812 65.1576 61.2559 65.2083 61.2559L65.1069 61.2812Z" fill="white"/>
<path d="M29.7165 14.9971C25.3845 13.7304 20.5205 17.8344 18.8232 24.1677C17.1258 30.5011 19.2539 36.6824 23.5859 37.9491C27.9179 39.2157 32.7819 35.1117 34.4792 28.7784C36.1765 22.4451 34.0485 16.2891 29.7165 14.9971ZM31.8445 28.0184C30.5525 32.8824 26.8032 36.0237 23.5099 35.0611C20.1912 34.0984 18.5699 29.3357 19.8619 24.4971C21.1539 19.6331 24.9032 16.4917 28.1965 17.4544C31.5152 18.4171 33.1365 23.1544 31.8445 28.0184Z" fill="#FFC133"/>
<path d="M21.7613 25.0544C20.8746 28.3731 21.9893 31.6157 24.2439 32.2744C26.4986 32.9331 29.0573 30.7797 29.9439 27.4611C30.8306 24.1424 29.7159 20.8997 27.4613 20.2411C25.2066 19.5824 22.6479 21.7357 21.7613 25.0544Z" fill="#FFC133"/>
<path d="M65.1068 61.2558H65.2081L65.2334 61.2305H65.2081L65.0308 61.1292L65.1068 61.2558Z" fill="#0FC6EF"/>
<path d="M52.5664 50.084L49.805 50.768L43.8264 52.212L42.6104 52.516L50.3877 54.644L59.229 52.4906L52.5664 50.084Z" fill="#FFC133"/>
<path d="M49.1465 39.3677C59.1531 28.3477 51.3251 13.933 51.3251 13.933C49.6025 12.0837 48.1585 11.0957 48.1585 11.0957C48.1585 11.0957 55.1505 27.2077 46.2078 36.9357C35.9731 48.057 23.6611 41.8504 23.6611 41.8504C24.5985 42.965 25.5611 44.1304 28.2971 45.321C29.4118 45.7517 39.7731 49.6784 49.1465 39.3677Z" fill="#FFC133"/>
<path d="M42.6101 52.5159L16.7195 58.8239L15.9595 60.5719L47.2461 55.3785L50.3875 54.6439L42.6101 52.5159Z" fill="white"/>
<path d="M31.5904 9.87975L28.9304 10.4877C28.3477 10.6144 27.8917 11.1211 27.917 11.8811C27.917 12.6411 28.3984 12.9451 28.981 12.7931L31.641 12.1851C32.2237 12.0584 32.6797 11.5517 32.6544 10.7917C32.629 10.0571 32.173 9.75308 31.5904 9.87975Z" fill="#FFC133"/>
<path d="M23.104 42.8134C22.3947 42.0787 21.736 41.2934 21.128 40.4827C20.9507 40.2547 20.7987 40.0267 20.6467 39.7987L1.31733 31.7681L0 31.2361V39.6721L21.66 47.9814L25.7387 45.1441C24.8013 44.4347 23.9147 43.6747 23.104 42.8134Z" fill="#FFC133"/>
<path d="M58.8997 30.7294C58.7223 33.0347 58.165 35.2387 57.253 37.316C56.493 39.0134 55.4543 40.6854 54.2637 42.1294L75.9997 28.6774V26.2454V19.1267L58.8997 30.7294Z" fill="#FFC133"/>
<path d="M65.6641 54.8466C66.3228 54.1373 67.0068 53.5293 67.6908 53.0479C67.7161 53.0226 67.7668 52.9973 67.7921 52.9719C69.1094 52.0599 70.3508 51.6039 71.1614 51.7813L53.5294 42.9399C52.5668 44.1053 51.4268 45.0933 50.1348 45.8786L52.5668 50.1093L59.2294 52.5159L63.2321 58.5199C63.6881 57.3799 64.5241 56.0626 65.6641 54.8466Z" fill="#FFD88A"/>
<path d="M63.3843 58.6973L63.4856 58.8493L63.3843 58.6973Z" fill="#FFD88A"/>
<path d="M43.7003 52.2371L43.067 50.1345L42.7123 48.9945L42.231 47.4238C39.6217 47.7531 37.0377 47.5758 34.8337 47.1705C34.1497 47.0438 33.5163 46.9171 32.9337 46.7651L32.503 48.5131L31.9963 50.5398L30.8057 55.3531L30.9577 55.3278L34.4537 54.4665L37.0377 53.8331L42.611 52.4651L43.7257 52.1865L43.7003 52.2371Z" fill="#FFC133"/>
<path d="M34.8331 47.196C37.0625 47.576 39.6211 47.7787 42.2305 47.4493L42.7118 49.02L43.0665 50.1347L43.6745 52.2374L50.6665 50.54L48.7918 46.6894L48.2091 45.4987C48.6398 45.2707 49.0451 44.992 49.4758 44.7133C51.0971 43.5733 52.6171 42.028 53.9091 40.0013C63.4598 24.8013 51.3251 13.9333 51.3251 13.9333C51.3251 13.9333 59.1531 28.348 49.1465 39.368C39.7731 49.6787 29.3865 45.752 28.2971 45.296C28.2465 45.2707 28.1958 45.2453 28.1958 45.2453C28.1958 45.2453 28.2971 45.296 28.4998 45.372C29.3105 45.7267 31.7171 46.6387 34.8331 47.196Z" fill="#FF8F33"/>
<path d="M47.2465 55.3787L48.3865 59.7867L13.2998 66.7027L15.9598 60.572L47.2465 55.3787Z" fill="#FFD88A"/>
<path d="M50.3883 54.644L47.247 55.3534L48.387 59.7614L13.3003 66.7027L12.591 68.3494C12.5657 68.476 12.515 68.5774 12.4643 68.6787C12.4137 68.7294 12.3883 68.8054 12.3377 68.856C12.3123 68.8814 12.2617 68.932 12.211 68.9574C12.0843 69.0334 11.9577 69.084 11.8057 69.1347L53.5297 63.004L50.3883 54.644Z" fill="#FFC133"/>
<path d="M28.652 46.968L25.1813 49.324L7.75195 61.1547C7.92929 61.2814 8.08129 61.408 8.25862 61.5347C8.51195 61.7374 8.76529 61.9654 9.01862 62.1934C9.27195 62.4214 9.52529 62.6747 9.77862 62.928C10.108 63.2574 10.412 63.612 10.6906 63.9667C10.8426 64.1694 10.9946 64.3467 11.1466 64.5494C11.704 65.3094 12.1093 66.044 12.3626 66.7027C12.388 66.7534 12.4133 66.8294 12.4386 66.88C12.5906 67.2854 12.6666 67.6654 12.6413 67.9947C12.6413 68.1467 12.616 68.2734 12.5906 68.4L16.72 58.8494L21.0266 57.76L30.6786 51.4267L31.996 50.5653L32.5026 48.5387C31.16 48.1333 29.868 47.6014 28.652 46.968Z" fill="#FFD88A"/>
<path d="M12.4636 68.7037C12.5903 68.501 12.641 68.273 12.641 67.9944C12.641 67.665 12.565 67.285 12.4383 66.8797C12.185 66.1704 11.7543 65.3597 11.1463 64.5237C10.7663 63.9917 10.3103 63.4344 9.77831 62.9024C9.11964 62.2184 8.41031 61.6104 7.75164 61.1544C6.61164 60.3437 5.54764 59.8877 4.76231 59.8877C4.40764 59.8877 4.10364 59.989 3.90098 60.1917C3.87564 60.217 3.87564 60.2424 3.85031 60.2424C3.03964 61.205 4.17964 63.8144 6.45964 66.145C8.68898 68.4504 11.2223 69.6664 12.2356 68.957C12.2863 68.9317 12.3116 68.9064 12.3623 68.8557C12.3623 68.805 12.413 68.7544 12.4636 68.7037Z" fill="white"/>
<path d="M48.2349 45.4985L50.6922 50.5398L52.5669 50.0838L49.4762 44.7131C49.0709 45.0171 48.6655 45.2705 48.2349 45.4985Z" fill="#FFC133"/>
<path d="M54.264 42.1294C53.884 42.5854 53.9853 42.4841 53.5547 42.9401L71.1867 51.7814C71.4147 51.8321 71.592 51.9081 71.744 52.0601C72.7573 53.0228 71.6933 55.8094 69.3627 58.3174C67.9693 59.8121 66.4493 60.8508 65.2333 61.2561H65.208C65.1827 61.2561 65.1573 61.2814 65.1067 61.2814V61.2561L65.0307 61.1294L63.2573 58.4948L59.2547 52.4908L50.4133 54.6694L53.5293 63.0294L11.78 69.1348C10.5893 69.3628 8.38533 68.1974 6.40933 66.1454C4.12933 63.7894 2.98933 61.1801 3.8 60.2428C3.82533 60.2174 3.82533 60.1921 3.85067 60.1921C4.05333 59.9894 4.35733 59.8881 4.712 59.8881L21.6093 47.9814L0 39.6468V63.8908V75.9241V75.9494L76 76.0254V28.6521L54.264 42.1294Z" fill="#FF8F33"/>
<path d="M12.0083 69.0586C12.0843 69.0333 12.135 69.0079 12.211 68.9573C12.135 69.0079 12.0843 69.0333 12.0083 69.0586Z" fill="#FF8F33"/>
</g>
<defs>
<clipPath id="clip0">
<rect width="76" height="76" fill="white"/>
</clipPath>
</defs>
</svg>

<svg width="76" height="76" fill="none" xmlns="http://www.w3.org/2000/svg"><g clip-path="url(#clip0)"><path d="M42.738 48.995l-.102-.28.102.28.076.278-.076-.279zM33.82 46.993c.026 0 .051 0 .076.026-.025-.026-.05-.026-.076-.026zM48.235 45.498l.583 1.217.633 1.317-1.216-2.533z" fill="#fff"/><path d="M76-.026H0v16.061l17.1 9.373c-.101.786-.127 1.596-.127 2.407 0 4.307 1.292 8.461 3.699 12.008.152.228.304.456.481.684.608.81 1.242 1.596 1.976 2.33.811.837 1.698 1.622 2.635 2.306.937.684 1.9 1.318 2.913 1.85a23.156 23.156 0 003.851 1.57l.405-1.773a35.617 35.617 0 01-4.433-1.393 3.526 3.526 0 01-.304-.127s.025.025.101.05c1.09.456 11.476 4.383 20.85-5.928 10.006-11.02 2.178-25.434 2.178-25.434S63.46 24.826 53.91 40.026c-1.292 2.052-2.786 3.597-4.433 4.712-.152.101-.279.203-.43.279.151-.102.278-.178.43-.28l.659 1.14a13.035 13.035 0 003.394-2.938c.431-.43.304-.33.71-.81a21.52 21.52 0 002.989-4.814 19.993 19.993 0 001.647-6.586c.05-.583.076-1.14.076-1.723 0-2.179-.33-4.332-.963-6.359L76 9.854v-9.88z" fill="#fff"/><path d="M0 31.185v.051l1.317.557L0 31.185z" fill="#0FC6EF"/><path d="M57.988 22.648c.634 2.052.963 4.18.963 6.358 0 .583-.025 1.166-.076 1.723L76 19.127V9.854L57.988 22.648zM20.647 39.799a21.324 21.324 0 01-3.699-12.008c0-.81.05-1.622.127-2.407L0 16.036v15.175l1.317.583 19.33 8.005z" fill="#FFD88A"/><path d="M25.739 45.119l-4.079 2.837L4.763 59.863c.785 0 1.849.456 2.989 1.266l17.43-11.83 3.47-2.356a17.508 17.508 0 01-2.913-1.824zM30.805 55.379l1.19-4.814-1.317.861-9.652 6.334 9.779-2.381z" fill="#FFC133"/><path d="M65.665 54.847c-1.14 1.216-1.977 2.533-2.407 3.648l1.773 2.634.203.102c1.216-.406 2.761-1.444 4.13-2.939 2.33-2.508 3.394-5.295 2.38-6.257-.709-.659-2.254-.254-3.926.912-.025.025-.076.05-.102.076a13.594 13.594 0 00-2.051 1.824zM65.107 61.281c.025 0 .05-.025.101-.025l-.101.025z" fill="#fff"/><path d="M29.716 14.997c-4.332-1.267-9.196 2.837-10.893 9.17-1.697 6.334.43 12.515 4.763 13.782 4.332 1.267 9.196-2.837 10.893-9.17 1.697-6.334-.43-12.49-4.762-13.782zm2.128 13.021c-1.292 4.864-5.04 8.006-8.334 7.043-3.319-.963-4.94-5.725-3.648-10.564 1.292-4.864 5.041-8.005 8.335-7.043 3.318.963 4.94 5.7 3.648 10.564z" fill="#FFC133"/><path d="M21.761 25.054c-.886 3.32.228 6.562 2.483 7.22 2.255.66 4.813-1.494 5.7-4.813.887-3.319-.228-6.561-2.483-7.22-2.254-.659-4.813 1.495-5.7 4.813z" fill="#FFC133"/><path d="M65.107 61.256h.101l.025-.026h-.025l-.177-.1.076.126z" fill="#0FC6EF"/><path d="M52.566 50.084l-2.761.684-5.979 1.444-1.216.304 7.778 2.128 8.841-2.153-6.663-2.407zM49.147 39.368c10.006-11.02 2.178-25.435 2.178-25.435-1.723-1.85-3.167-2.837-3.167-2.837s6.992 16.112-1.95 25.84C35.973 48.057 23.66 41.85 23.66 41.85c.938 1.115 1.9 2.28 4.636 3.471 1.115.43 11.476 4.357 20.85-5.953z" fill="#FFC133"/><path d="M42.61 52.516l-25.89 6.308-.76 1.748 31.286-5.194 3.142-.734-7.778-2.128z" fill="#fff"/><path d="M31.59 9.88l-2.66.608c-.582.126-1.038.633-1.013 1.393 0 .76.481 1.064 1.064.912l2.66-.608c.583-.127 1.039-.633 1.013-1.393-.025-.735-.481-1.039-1.064-.912zM23.104 42.813a24.643 24.643 0 01-1.976-2.33c-.177-.228-.33-.456-.481-.684l-19.33-8.03L0 31.235v8.436l21.66 8.31 4.079-2.838c-.938-.71-1.824-1.47-2.635-2.33zM58.9 30.73a20.15 20.15 0 01-1.647 6.586 21.519 21.519 0 01-2.99 4.813L76 28.677v-9.55L58.9 30.729z" fill="#FFC133"/><path d="M65.664 54.847a13.09 13.09 0 012.027-1.8c.025-.024.076-.05.101-.075 1.317-.912 2.559-1.368 3.37-1.19L53.528 42.94a13.454 13.454 0 01-3.394 2.939l2.432 4.23 6.662 2.407 4.003 6.004c.456-1.14 1.292-2.457 2.432-3.673zM63.384 58.697l.102.152-.102-.152z" fill="#FFD88A"/><path d="M43.7 52.237l-.633-2.102-.355-1.14-.481-1.571c-2.61.33-5.193.152-7.397-.254a27.381 27.381 0 01-1.9-.405l-.431 1.748-.507 2.027-1.19 4.813.152-.025 3.496-.861 2.584-.634 5.573-1.368 1.115-.279-.026.051z" fill="#FFC133"/><path d="M34.833 47.196c2.23.38 4.788.583 7.398.253l.48 1.571.355 1.115.608 2.102 6.992-1.697-1.874-3.85-.583-1.191c.43-.228.836-.507 1.267-.786 1.621-1.14 3.141-2.685 4.433-4.712 9.55-15.2-2.584-26.068-2.584-26.068s7.828 14.415-2.178 25.435c-9.374 10.31-19.76 6.384-20.85 5.928l-.101-.05s.101.05.304.126c.81.355 3.217 1.267 6.333 1.824z" fill="#FF8F33"/><path d="M47.246 55.379l1.14 4.408L13.3 66.703l2.66-6.131 31.286-5.193z" fill="#FFD88A"/><path d="M50.388 54.644l-3.141.71 1.14 4.407L13.3 66.703l-.709 1.646a1.27 1.27 0 01-.127.33c-.05.05-.076.126-.126.177a.554.554 0 01-.127.101 1.963 1.963 0 01-.405.178l41.724-6.131-3.142-8.36z" fill="#FFC133"/><path d="M28.652 46.968l-3.47 2.356-17.43 11.83c.177.127.33.254.507.38.253.203.506.431.76.66.253.227.506.48.76.734.329.33.633.684.912 1.039.152.202.304.38.456.582.557.76.962 1.495 1.216 2.154.025.05.05.126.076.177.152.405.228.785.202 1.115 0 .152-.025.278-.05.405l4.129-9.55 4.307-1.09 9.652-6.333 1.317-.862.507-2.026a22.312 22.312 0 01-3.851-1.571z" fill="#FFD88A"/><path d="M12.464 68.704c.126-.203.177-.431.177-.71 0-.329-.076-.709-.203-1.114-.253-.71-.684-1.52-1.292-2.356a12.92 12.92 0 00-1.368-1.622 13.837 13.837 0 00-2.026-1.748c-1.14-.81-2.204-1.266-2.99-1.266-.354 0-.658.101-.861.304-.025.025-.025.05-.05.05-.811.963.329 3.572 2.609 5.903 2.229 2.305 4.762 3.521 5.776 2.812a.444.444 0 00.126-.101c0-.051.051-.102.102-.152z" fill="#fff"/><path d="M48.235 45.498l2.457 5.042 1.875-.456-3.09-5.37c-.406.303-.811.556-1.242.785z" fill="#FFC133"/><path d="M54.264 42.13c-.38.455-.279.354-.71.81l17.633 8.841c.228.051.405.127.557.28 1.013.962-.05 3.748-2.381 6.256-1.394 1.495-2.914 2.534-4.13 2.94h-.025c-.025 0-.05.024-.101.024v-.025l-.076-.127-1.774-2.634-4.002-6.004-8.842 2.178 3.116 8.36-41.749 6.106c-1.19.228-3.395-.938-5.37-2.99-2.28-2.356-3.42-4.965-2.61-5.902.025-.026.025-.05.05-.05.203-.204.507-.305.862-.305l16.897-11.907L0 39.647v36.302l76 .076V28.652L54.264 42.13zM12.008 69.059z" fill="#FF8F33"/></g><defs><clipPath id="clip0"><path fill="#fff" d="M0 0h76v76H0z"/></clipPath></defs></svg>
